set-left-center.svg

<svg fill="currentColor" viewBox="0 0 24 24"><path d="M9 5c1.04 0 2.06.24 3 .68.94-.44 1.96-.68 3-.68a7 7 0 0 1 7 7 7 7 0 0 1-7 7c-1.04 0-2.06-.24-3-.68-.94.44-1.96.68-3 .68a7 7 0 0 1-7-7 7 7 0 0 1 7-7m6 2-1 .11c1.28 1.3 2 3.06 2 4.89s-.72 3.59-2 4.9l1 .1a5 5 0 0 0 5-5 5 5 0 0 0-5-5m-6.5 5c0 1.87.79 3.56 2.06 4.75l1-.46c-1.25-1-2.06-2.55-2.06-4.29s.81-3.29 2.06-4.29l-1-.46A6.5 6.5 0 0 0 8.5 12"/></svg>

<svg  viewBox="0 0 24 24" fill="currentColor"><path  d="M9,5C10.04,5 11.06,5.24 12,5.68C12.94,5.24 13.96,5 15,5A7,7 0 0,1 22,12A7,7 0 0,1 15,19C13.96,19 12.94,18.76 12,18.32C11.06,18.76 10.04,19 9,19A7,7 0 0,1 2,12A7,7 0 0,1 9,5M15,7L14,7.11C15.28,8.41 16,10.17 16,12C16,13.83 15.28,15.59 14,16.9L15,17A5,5 0 0,0 20,12A5,5 0 0,0 15,7M8.5,12C8.5,13.87 9.29,15.56 10.56,16.75L11.56,16.29C10.31,15.29 9.5,13.74 9.5,12C9.5,10.26 10.31,8.71 11.56,7.71L10.56,7.25C9.29,8.44 8.5,10.13 8.5,12Z"/></svg>
